X:1
T:Title
%%score ( 1 2 ) { 3 | 4 }
L:1/8
Q:1/4=115
M:4/4
K:F
V:1 treble nm="Grand Piano, Staff"
V:2 treble 
V:3 treble nm="Choir Pad, Bemerton (Caswall)"
V:4 bass 
V:1
 [FA]2 [FA]2 [FG]2 [EG]2 | F2- [CF]2 [^CE]4 | [DF]2 F2 [FG]2 [EG]2 | [FA]8 | %4
w: By~Friedrich~Filitz,~1847 * * *||||
 [Ec]2 [Fc]2 [DB]2 [GB]2 | A2- [EA]2 [EG]4 | [FA]2 [FA]2 [FG]2 [EG]2 | F8 |] %8
w: ||||
V:2
 x8 | D2 z2 z4 | x8 | x8 | x8 | F2 z2 z4 | x8 | x8 |] %8
V:3
 C2 C2 C2 C2 | A,4[K:bass] A,4 | A,2 A,2 C2 C2 | C8 | C2 A,2 B,2 C2 | C4 C4 | C2 C2 D2 C2 | A,8 |] %8
V:4
 F,2 F,2 C,2 C,2 | D,4 A,,4 | D,2 D,2 C,2 C,2 | F,8 | A,2 F,2 G,2 E,2 | F,4 C,4 | %6
 F,2 A,,2 B,,2 C,2 | F,8 |] %8

